X:1
T:O my God, I cry - Reynolds
T:#
T:O my God, I cry - Reynolds
T:#
%%score [ 1 2 3 ] { ( 4 5 ) | 6 }
L:1/8
M:3/4
K:Eb
V:1 treble nm="Alto" snm="A"
V:2 treble-8 nm="Tenor" snm="T"
V:3 bass nm="Bass" snm="B"
V:4 treble nm="RH"
V:5 treble 
V:6 bass 
V:1
"^arranged in 3 parts by James Gibb" z6 | z6 | z6 | z6 | z6 | z6 | z6 | %7
w: |||||||
"^John Reynolds\n( -1770)" z6 | z6 | F4 B2 | (B2 =A2) z B | c2 F2 E2 | DE F2 z G | =A2 G2 _G2 | %14
w: ||O my|God, * I|cry in the|day\- * time but|thou hear- est|
 G4 z B | c2 B2 =A2 | B4 z D | E2 D2 C2 | D4 F2 | B2 B2 A2 | AG G2 B2- | B2 A2 G2- | G2 F2 E2 | %23
w: not, but|thou hear- est|not, but|thou hear- est|not and|in the night|sea\- * son al\-|* so I|* take no|
 (E2 D2) E2 | B4 G2 | (G2 F2) z2 | z2 z2 A2 | A2 z F GA | (B2 A2) G2 | G4 F2 | E4 z2 | z2 z2 E2 | %32
w: rest, * I|take no|rest, *|no|rest, al- so I|take, * I|take no|rest,|no|
 (E2 D2) E2 | A4 FE | D2 z D EF | (G2 F2) E2 | E2 z/"^molto lento" D/E/F/ E/D/C/D/ | E6 |] %38
w: rest, * I|take no *|rest, al- so I|take, * I|take, take * * no * * *|rest.|
V:2
"^O My God, I Cry in the Daytime""^Psalm 22:2" z6 | z6 | z6 | z6 | B4 e2 | (e2 d2) z e | F2 G2 A2 | %7
w: ||||O my|God, * I|cry in the|
 GF E2 z G | c2 B2 =A2 | B4 z2 | z6 | z6 | z6 | z6 | z2 z2 z d | e2 d2 c2 | d4 z B | c2 B2 =A2 | %18
w: day\- * time but|thou hear- est|not,|||||but|thou hear- est|not, but|thou hear- est|
 B4 z2 | z2 z2 B2 | e2 e2 _d2 | _dc c2 B2 | AG A2 G2 | (G2 F2) z2 | z2 z2 E2 | (E2 D2) E2 | A4 FE | %27
w: not|and|in the night|sea\- * son al-|so I take no|rest, *|no|rest, * I|take no *|
 D2 z D EF | (G2 F2) E2 | E4 D2 | E4 E2 | B4 G2 | (G2 F2) z2 | z2 z2 A2 | A2 z F GA | (B2 A2) G2 | %36
w: rest, al- so I|take, * I|take no|rest, I|take no|rest, *|no|rest, al- so I|take, * I|
 G2 z/"^molto lento" F/G/A/ G/F/E/F/ | E6 |] %38
w: take, take * * no * * *|rest.|
V:3
 z6 | z6 | z6 | z6 | z6 | z6 | z6 | z6 | z6 | z6 | z6 | z2 F,4 | B,,2 D,2 B,,2 | C,2 D,4 | %14
w: |||||||||||I|cry, but thou|hear- est|
 G,,4 z G, | E,2 F,2 F,2 | B,,4 z G, | E,2 F,2 F,,2 | B,,4 z2 | z6 | z4 G,2 | A,2 A,2 E,2 | %22
w: not, but|thou hear- est|not, but|thou hear- est|not||and|in the night|
 F,2 D,2 E,2 | B,,4 z2 | z6 | z6 | z2 F,2 A,2 | B,6- | B,4 =A,2 | B,4 B,,2 | E,4 z2 | z6 | z6 | %33
w: sea- son no|rest,|||take no|rest,|* no|rest, no|rest,|||
 z2 F,,2 A,,2 | B,,6- | B,,4 =A,,2 | B,,2 z2"^molto lento" B,,2 | E,6 |] %38
w: take no|rest,|* no|rest, no|rest.|
V:4
 B4 x2 | [Ge]2 [Fd]2 [EBe]2 | F2 G2 [DA]2 | [B,G]3 [A,F] [G,E]2 | z2 BA G2 | [EG]2 [DF]2 E2 | %6
 [Fc]2 [GB]c [FAd]2 | x6 | x2 [Bd]2 [=Ac]2 | [FBd]4 [FBd]2 | [Bd]2 [=Ac]2 [FB]2 | [CG]2 FG [E=A]2 | %12
 [DFB]4 [Gd]2 | [=Ae]2 [Bd]3 c | [GB]=A G2 [B,DG]2 | [CGc]2 [DB]2 [C=A]2 | [DFB]4 [DGB]2 | %17
 [Gc]2 [Bd]2 [=Ac]2 | [DFB]6 | z2 d2 [AB]2 | [EB]4 [_DB]2- | [DB]2 [CA]2 [B,EG]2 | G2 F2 [G,B,E]2 | %23
 E2 D2 [B,E]2 | z2 G2 [EB]2 | B4 [B,EB]2 | z2 AG FE | [A,D]4 [G,E][A,F] | [B,EG]2 [A,F]2 [G,E]2 | %29
 [G,B,E]4 [F,D]2 | [G,B,E]4 z2 | z2 GF [B,E]2 | E2 D2 [B,E]2 | z2 F3 E | [A,D]4 [G,E][A,F] | %35
 [B,G]2 [A,F]2 [G,E]2 | [G,B,E]2 z2 [G,E]/[F,D]/[E,C]/[F,D]/ | [G,B,E]6 |] %38
V:5
 z2 EF [GBe]2 | B4 x2 | E4 x2 | E4 x2 | z2 E4 | x6 | E4 x2 | [GBe]4 [GBe]2- | [GBe]2 F4 | x6 | %10
 F4 x2 | x2 D2 x2 | x6 | G4 [_G=A]2 | D3 C x2 | x2 F4 | x6 | x2 F4 | x6 | z2 F4 | A2 G2 E2- | %21
 E4 x2 | A,2 B,A, x2 | x6 | z2 x4 | [EG]2 [DF]2 x2 | z2 x2 C2 | x4 B,2 | x6 | x6 | x4 z2 | z2 x4 | %32
 B,4 x2 | z2 [A,C]4 | x4 B,2 | x6 | x4 B,2 | x6 |] %38
V:6
 z2 G,2 E,2 | B,2 A,2 G,2 | A,2 B,2 B,,2 | E,6 | z2 G,2 E,2 | B,2 A,2 G,2 | A,2 B,2 B,,2 | %7
 E,2 G,2 E,2 | C,2 F,2 F,,2 | B,,2 D,2 B,,2 | F,2 E,2 D,2 | E,2 F,2 F,,2 | B,,2 D,2 B,,2 | %13
 C,2 D,2 D,,2 | G,,2 B,,2 G,2 | E,2 F,2 F,,2 | B,,2 D,2 G,2 | E,2 F,2 F,,2 | B,,2 D,2 B,,2 | %19
 z2 B,,2 D,2 | E,2 E,2 G,2 | A,2 A,,2 E,2 | F,2 D,2 E,2 | B,2 A,2 G,2 | z2 E,2 G,2 | B,2 A,2 G,2 | %26
 z2 F,,2 A,,2 | B,,6 | B,,4 =A,,2 | B,,6 | E,2 E,,2 z2 | z2 E,2 G,2 | B,2 A,2 G,2 | z2 F,,2 A,,2 | %34
 B,,4 B,,2 | B,,4 =A,,2 | B,,2 z2"^molto lento" B,,2 | E,,6 |] %38

